src/static/icons/logo.svg

<?xml version="1.0" encoding="UTF-8"?>
<!DOCTYPE svg PUBLIC "-//W3C//DTD SVG 1.1//EN" "http://www.w3.org/Graphics/SVG/1.1/DTD/svg11.dtd">
<svg xmlns="http://www.w3.org/2000/svg" version="1.1" width="118px" height="126px" style="shape-rendering:geometricPrecision; text-rendering:geometricPrecision; image-rendering:optimizeQuality; fill-rule:evenodd; clip-rule:evenodd" xmlns:xlink="http://www.w3.org/1999/xlink">
<g><path style="opacity:0.981" fill="#4ffe2f" d="M 48.5,-0.5 C 49.8333,-0.5 51.1667,-0.5 52.5,-0.5C 61.2687,4.38884 69.9353,9.55551 78.5,15C 83.0019,18.3358 87.0019,22.1691 90.5,26.5C 90.6495,27.552 90.4828,28.552 90,29.5C 79.5268,42.7257 66.3601,46.2257 50.5,40C 46.0553,37.2379 42.3886,33.7379 39.5,29.5C 56.0914,23.8657 59.0914,13.8657 48.5,-0.5 Z"/></g>
<g><path style="opacity:0.995" fill="#1bfb73" d="M 21.5,23.5 C 24.7912,35.0873 31.2912,44.4206 41,51.5C 42.8003,52.3195 44.6336,52.9862 46.5,53.5C 42.1306,56.3568 38.1306,59.6901 34.5,63.5C 22.7835,57.4299 14.7835,48.0966 10.5,35.5C 14.176,31.4587 17.8427,27.4587 21.5,23.5 Z"/></g>
<g><path style="opacity:0.999" fill="#30fd55" d="M 39.5,29.5 C 42.3886,33.7379 46.0553,37.2379 50.5,40C 66.3601,46.2257 79.5268,42.7257 90,29.5C 90.4828,28.552 90.6495,27.552 90.5,26.5C 94.6625,30.0013 97.6625,34.3346 99.5,39.5C 98.6109,41.736 97.2776,43.736 95.5,45.5C 92.3603,47.473 89.3603,49.6397 86.5,52C 82.5454,54.596 78.2121,56.096 73.5,56.5C 64.8948,52.4573 55.8948,51.4573 46.5,53.5C 44.6336,52.9862 42.8003,52.3195 41,51.5C 31.2912,44.4206 24.7912,35.0873 21.5,23.5C 23.7833,20.0437 26.2833,16.7104 29,13.5C 30.8532,17.3849 32.5198,21.3849 34,25.5C 35.4321,27.4388 37.2654,28.7721 39.5,29.5 Z"/></g>
<g><path style="opacity:0.999" fill="#1dfb70" d="M 99.5,39.5 C 103.015,44.8819 104.682,50.8819 104.5,57.5C 100.167,58.8368 96.1668,61.0035 92.5,64C 89.6907,65.7411 86.6907,66.9078 83.5,67.5C 80.8769,63.2092 77.5436,59.5425 73.5,56.5C 78.2121,56.096 82.5454,54.596 86.5,52C 89.3603,49.6397 92.3603,47.473 95.5,45.5C 97.2776,43.736 98.6109,41.736 99.5,39.5 Z"/></g>
<g><path style="opacity:1" fill="#161717" d="M 73.5,56.5 C 77.5436,59.5425 80.8769,63.2092 83.5,67.5C 84.1667,69.1667 84.8333,70.8333 85.5,72.5C 85.5,75.8333 85.5,79.1667 85.5,82.5C 84.5655,83.5676 84.2322,84.901 84.5,86.5C 83.5987,87.2905 82.9321,88.2905 82.5,89.5C 80.5293,91.8082 78.5293,94.1415 76.5,96.5C 75.5489,97.9187 75.2155,99.5853 75.5,101.5C 75.5,102.5 75.5,103.5 75.5,104.5C 74.8561,107.144 73.1894,108.811 70.5,109.5C 68.8643,98.9126 67.8643,98.9126 67.5,109.5C 64.8333,109.5 62.1667,109.5 59.5,109.5C 59.5,107.167 59.5,104.833 59.5,102.5C 58.5,102.5 57.5,102.5 56.5,102.5C 56.5,104.833 56.5,107.167 56.5,109.5C 53.8333,109.5 51.1667,109.5 48.5,109.5C 48.6641,106.813 48.4974,104.146 48,101.5C 47.586,101.043 47.086,100.709 46.5,100.5C 45.8333,103.5 45.1667,106.5 44.5,109.5C 42.739,108.965 41.4057,107.965 40.5,106.5C 39.962,104.883 39.6287,103.216 39.5,101.5C 39.5,100.167 39.5,98.8333 39.5,97.5C 36.4229,94.4307 33.7563,91.0974 31.5,87.5C 31.5979,85.4471 30.9313,83.7804 29.5,82.5C 29.5,81.1667 29.5,79.8333 29.5,78.5C 29.5,77.1667 29.5,75.8333 29.5,74.5C 29.8333,73.1667 30.1667,71.8333 30.5,70.5C 31.5804,68.0038 32.9138,65.6705 34.5,63.5C 38.1306,59.6901 42.1306,56.3568 46.5,53.5C 55.8948,51.4573 64.8948,52.4573 73.5,56.5 Z"/></g>
<g><path style="opacity:0.999" fill="#38c9a3" d="M 2.5,45.5 C 9.04181,57.3779 18.0418,67.0446 29.5,74.5C 29.5,75.8333 29.5,77.1667 29.5,78.5C 17.4909,71.7901 8.1576,62.4567 1.5,50.5C 1.36596,48.7085 1.69929,47.0418 2.5,45.5 Z"/></g>
<g><path style="opacity:0.998" fill="#31d39b" d="M 5.5,41.5 C 10.5912,53.9271 18.9245,63.5938 30.5,70.5C 30.1667,71.8333 29.8333,73.1667 29.5,74.5C 18.0418,67.0446 9.04181,57.3779 2.5,45.5C 3.02561,43.7697 4.02561,42.4363 5.5,41.5 Z"/></g>
<g><path style="opacity:0.999" fill="#22e88c" d="M 10.5,35.5 C 14.7835,48.0966 22.7835,57.4299 34.5,63.5C 32.9138,65.6705 31.5804,68.0038 30.5,70.5C 18.9245,63.5938 10.5912,53.9271 5.5,41.5C 6.41938,38.9108 8.08605,36.9108 10.5,35.5 Z"/></g>
<g><path style="opacity:0.999" fill="#1bf186" d="M 104.5,57.5 C 104.552,59.9029 104.219,62.2362 103.5,64.5C 99.8972,65.3034 96.8972,67.1367 94.5,70C 91.4535,70.7388 88.4535,71.5721 85.5,72.5C 84.8333,70.8333 84.1667,69.1667 83.5,67.5C 86.6907,66.9078 89.6907,65.7411 92.5,64C 96.1668,61.0035 100.167,58.8368 104.5,57.5 Z"/></g>
<g><path style="opacity:0.992" fill="#3ec0a8" d="M 117.5,61.5 C 117.5,63.5 117.5,65.5 117.5,67.5C 108.197,76.6555 97.197,82.9888 84.5,86.5C 84.2322,84.901 84.5655,83.5676 85.5,82.5C 90.3562,81.3768 95.0228,79.5434 99.5,77C 106.282,72.7164 112.282,67.5497 117.5,61.5 Z"/></g>
<g><path style="opacity:0.978" fill="#4cacb5" d="M 2.5,60.5 C 7.58351,65.0817 12.5835,69.915 17.5,75C 21.388,77.7721 25.388,80.2721 29.5,82.5C 30.9313,83.7804 31.5979,85.4471 31.5,87.5C 23.7345,84.4482 16.7345,80.1149 10.5,74.5C 6.82344,70.4885 4.15678,65.8219 2.5,60.5 Z"/></g>
<g><path style="opacity:0.999" fill="#31d49b" d="M 117.5,52.5 C 117.5,55.5 117.5,58.5 117.5,61.5C 112.282,67.5497 106.282,72.7164 99.5,77C 95.0228,79.5434 90.3562,81.3768 85.5,82.5C 85.5,79.1667 85.5,75.8333 85.5,72.5C 88.4535,71.5721 91.4535,70.7388 94.5,70C 96.8972,67.1367 99.8972,65.3034 103.5,64.5C 103.408,68.0714 105.074,69.2381 108.5,68C 112.186,63.1152 115.186,57.9485 117.5,52.5 Z"/></g>
<g><path style="opacity:0.999" fill="#28d48a" d="M 67.5,72.5 C 75.3912,73.1288 77.7246,76.9621 74.5,84C 66.7585,87.2479 63.2585,84.7479 64,76.5C 65.1022,75.051 66.2689,73.7177 67.5,72.5 Z"/></g>
<g><path style="opacity:0.996" fill="#43baad" d="M 1.5,50.5 C 8.1576,62.4567 17.4909,71.7901 29.5,78.5C 29.5,79.8333 29.5,81.1667 29.5,82.5C 25.388,80.2721 21.388,77.7721 17.5,75C 12.5835,69.915 7.58351,65.0817 2.5,60.5C 1.67577,57.2356 1.34243,53.9023 1.5,50.5 Z"/></g>
<g><path style="opacity:0.998" fill="#31d098" d="M 41.5,73.5 C 51.8554,72.5987 54.1888,76.432 48.5,85C 39.4651,85.4057 37.1317,81.5724 41.5,73.5 Z"/></g>
<g><path style="opacity:0.983" fill="#6b81d4" d="M 1.5,78.5 C 12.536,88.6924 25.2026,96.359 39.5,101.5C 39.6287,103.216 39.962,104.883 40.5,106.5C 26.93,101.578 14.5967,94.5783 3.5,85.5C 2.06054,83.412 1.39387,81.0786 1.5,78.5 Z"/></g>
<g><path style="opacity:0.983" fill="#599ac2" d="M 115.5,79.5 C 115.029,81.5786 114.363,83.5786 113.5,85.5C 108.555,88.3095 103.555,91.1428 98.5,94C 90.7949,96.6698 83.1282,99.1698 75.5,101.5C 75.2155,99.5853 75.5489,97.9187 76.5,96.5C 90.9082,93.7897 103.908,88.123 115.5,79.5 Z"/></g>
<g><path style="opacity:0.999" fill="#46b5b0" d="M 117.5,67.5 C 117.5,69.5 117.5,71.5 117.5,73.5C 117.167,73.5 116.833,73.5 116.5,73.5C 106.847,81.8289 95.8475,87.8289 83.5,91.5C 82.7025,91.0431 82.3691,90.3764 82.5,89.5C 82.9321,88.2905 83.5987,87.2905 84.5,86.5C 97.197,82.9888 108.197,76.6555 117.5,67.5 Z"/></g>
<g><path style="opacity:0.999" fill="#50a5b8" d="M 116.5,73.5 C 116.675,75.6208 116.341,77.6208 115.5,79.5C 103.908,88.123 90.9082,93.7897 76.5,96.5C 78.5293,94.1415 80.5293,91.8082 82.5,89.5C 82.3691,90.3764 82.7025,91.0431 83.5,91.5C 95.8475,87.8289 106.847,81.8289 116.5,73.5 Z"/></g>
<g><path style="opacity:0.998" fill="#39aa96" d="M 56.5,83.5 C 59.0827,84.985 60.416,87.3183 60.5,90.5C 58.396,90.7989 56.396,90.4656 54.5,89.5C 55.7472,87.677 56.4139,85.677 56.5,83.5 Z"/></g>
<g><path style="opacity:1" fill="#569dbf" d="M -0.5,64.5 C 2.44049,69.5282 5.77382,74.3615 9.5,79C 10.4162,79.3742 11.2496,79.8742 12,80.5C 11.8497,78.4944 11.3497,76.4944 10.5,74.5C 16.7345,80.1149 23.7345,84.4482 31.5,87.5C 33.7563,91.0974 36.4229,94.4307 39.5,97.5C 23.7354,91.962 10.402,82.962 -0.5,70.5C -0.5,68.5 -0.5,66.5 -0.5,64.5 Z"/></g>
<g><path style="opacity:0.998" fill="#638ecc" d="M -0.5,70.5 C 10.402,82.962 23.7354,91.962 39.5,97.5C 39.5,98.8333 39.5,100.167 39.5,101.5C 25.2026,96.359 12.536,88.6924 1.5,78.5C 0.833333,76.8333 0.166667,75.1667 -0.5,73.5C -0.5,72.5 -0.5,71.5 -0.5,70.5 Z"/></g>
<g><path style="opacity:1" fill="#638ecc" d="M 113.5,85.5 C 113.008,87.8185 112.008,89.8185 110.5,91.5C 99.8259,98.3298 88.1592,102.663 75.5,104.5C 75.5,103.5 75.5,102.5 75.5,101.5C 83.1282,99.1698 90.7949,96.6698 98.5,94C 103.555,91.1428 108.555,88.3095 113.5,85.5 Z"/></g>
<g><path style="opacity:0.998" fill="#7671de" d="M 3.5,85.5 C 14.5967,94.5783 26.93,101.578 40.5,106.5C 41.4057,107.965 42.739,108.965 44.5,109.5C 45.1667,106.5 45.8333,103.5 46.5,100.5C 47.086,100.709 47.586,101.043 48,101.5C 48.4974,104.146 48.6641,106.813 48.5,109.5C 67.7352,112.466 86.4018,109.799 104.5,101.5C 103.557,104.109 101.89,106.109 99.5,107.5C 67.1269,118.828 36.7936,114.828 8.5,95.5C 6.3256,92.4846 4.65893,89.1513 3.5,85.5 Z"/></g>
<g><path style="opacity:1" fill="#8263eb" d="M 8.5,95.5 C 36.7936,114.828 67.1269,118.828 99.5,107.5C 97.4509,110.55 94.7843,112.883 91.5,114.5C 64.4248,121.284 38.7581,117.95 14.5,104.5C 11.7589,102.025 9.75889,99.0246 8.5,95.5 Z"/></g>
<g><path style="opacity:0.999" fill="#6d79d2" d="M 110.5,91.5 C 109.502,95.5055 107.502,98.8388 104.5,101.5C 86.4018,109.799 67.7352,112.466 48.5,109.5C 51.1667,109.5 53.8333,109.5 56.5,109.5C 56.5,107.167 56.5,104.833 56.5,102.5C 57.5,102.5 58.5,102.5 59.5,102.5C 59.5,104.833 59.5,107.167 59.5,109.5C 62.1667,109.5 64.8333,109.5 67.5,109.5C 67.8643,98.9126 68.8643,98.9126 70.5,109.5C 73.1894,108.811 74.8561,107.144 75.5,104.5C 88.1592,102.663 99.8259,98.3298 110.5,91.5 Z"/></g>
<g><path style="opacity:0.946" fill="#924cfb" d="M 25.5,114.5 C 43.6079,121.048 61.9412,123.048 80.5,120.5C 75.3411,122.789 70.0078,124.455 64.5,125.5C 60.5,125.5 56.5,125.5 52.5,125.5C 42.6402,123.99 33.6402,120.323 25.5,114.5 Z"/></g>
<g><path style="opacity:0.999" fill="#8959f2" d="M 14.5,104.5 C 38.7581,117.95 64.4248,121.284 91.5,114.5C 88.322,117.258 84.6553,119.258 80.5,120.5C 61.9412,123.048 43.6079,121.048 25.5,114.5C 21.2092,111.877 17.5425,108.544 14.5,104.5 Z"/></g>
</svg>

<svg xmlns="http://www.w3.org/2000/svg" width="118" height="126" style="shape-rendering:geometricPrecision;text-rendering:geometricPrecision;image-rendering:optimizeQuality;fill-rule:evenodd;clip-rule:evenodd"><path fill="#4ffe2f" d="M48.5-.5h4a525.115 525.115 0 0 1 26 15.5 65.434 65.434 0 0 1 12 11.5 4.932 4.932 0 0 1-.5 3C79.527 42.726 66.36 46.226 50.5 40c-4.445-2.762-8.111-6.262-11-10.5 16.591-5.634 19.591-15.634 9-30Z" style="opacity:.981"/><path fill="#1bfb73" d="M21.5 23.5c3.291 11.587 9.791 20.92 19.5 28a36.87 36.87 0 0 0 5.5 2 67.713 67.713 0 0 0-12 10c-11.716-6.07-19.716-15.403-24-28 3.676-4.041 7.343-8.041 11-12Z" style="opacity:.995"/><path fill="#30fd55" d="M39.5 29.5c2.889 4.238 6.555 7.738 11 10.5 15.86 6.226 29.027 2.726 39.5-10.5.483-.948.65-1.948.5-3 4.162 3.501 7.162 7.835 9 13-.89 2.236-2.222 4.236-4 6a86.117 86.117 0 0 0-9 6.5c-3.955 2.596-8.288 4.096-13 4.5-8.605-4.043-17.605-5.043-27-3a36.899 36.899 0 0 1-5.5-2c-9.709-7.08-16.209-16.413-19.5-28a105.468 105.468 0 0 1 7.5-10 130.225 130.225 0 0 1 5 12c1.432 1.939 3.265 3.272 5.5 4Z" style="opacity:.999"/><path fill="#1dfb70" d="M99.5 39.5c3.515 5.382 5.182 11.382 5 18-4.333 1.337-8.333 3.504-12 6.5a25.936 25.936 0 0 1-9 3.5 39.315 39.315 0 0 0-10-11c4.712-.404 9.045-1.904 13-4.5a86.117 86.117 0 0 1 9-6.5c1.778-1.764 3.11-3.764 4-6Z" style="opacity:.999"/><path fill="#161717" d="M73.5 56.5a39.315 39.315 0 0 1 10 11l2 5v10c-.934 1.068-1.268 2.401-1 4-.901.79-1.568 1.79-2 3-1.97 2.308-3.97 4.641-6 7-.951 1.419-1.284 3.085-1 5v3c-.644 2.644-2.31 4.311-5 5-1.636-10.587-2.636-10.587-3 0h-8v-7h-3v7h-8a32.438 32.438 0 0 0-.5-8 3.647 3.647 0 0 0-1.5-1l-2 9c-1.761-.535-3.094-1.535-4-3a20.676 20.676 0 0 1-1-5v-4a56.489 56.489 0 0 1-8-10c.098-2.053-.569-3.72-2-5v-8l1-4a36.178 36.178 0 0 1 4-7 67.713 67.713 0 0 1 12-10c9.395-2.043 18.395-1.043 27 3Z" style="opacity:1"/><path fill="#38c9a3" d="M2.5 45.5c6.542 11.878 15.542 21.545 27 29v4c-12.01-6.71-21.342-16.043-28-28-.134-1.791.2-3.458 1-5Z" style="opacity:.999"/><path fill="#31d39b" d="M5.5 41.5c5.091 12.427 13.424 22.094 25 29l-1 4c-11.458-7.455-20.458-17.122-27-29 .526-1.73 1.526-3.064 3-4Z" style="opacity:.998"/><path fill="#22e88c" d="M10.5 35.5c4.284 12.597 12.284 21.93 24 28a36.178 36.178 0 0 0-4 7c-11.576-6.906-19.909-16.573-25-29 .92-2.59 2.586-4.59 5-6Z" style="opacity:.999"/><path fill="#1bf186" d="M104.5 57.5a21.434 21.434 0 0 1-1 7c-3.603.803-6.603 2.637-9 5.5a140.474 140.474 0 0 0-9 2.5l-2-5a25.936 25.936 0 0 0 9-3.5c3.667-2.996 7.667-5.163 12-6.5Z" style="opacity:.999"/><path fill="#3ec0a8" d="M117.5 61.5v6c-9.303 9.156-20.303 15.489-33 19-.268-1.599.066-2.932 1-4 4.856-1.123 9.523-2.957 14-5.5a80.178 80.178 0 0 0 18-15.5Z" style="opacity:.992"/><path fill="#4cacb5" d="M2.5 60.5a303.627 303.627 0 0 1 15 14.5 115.152 115.152 0 0 0 12 7.5c1.431 1.28 2.098 2.947 2 5-7.765-3.052-14.765-7.385-21-13-3.677-4.011-6.343-8.678-8-14Z" style="opacity:.978"/><path fill="#31d49b" d="M117.5 52.5v9a80.178 80.178 0 0 1-18 15.5c-4.477 2.543-9.144 4.377-14 5.5v-10a140.474 140.474 0 0 1 9-2.5c2.397-2.863 5.397-4.697 9-5.5-.092 3.571 1.574 4.738 5 3.5 3.686-4.885 6.686-10.051 9-15.5Z" style="opacity:.999"/><path fill="#28d48a" d="M67.5 72.5c7.891.629 10.225 4.462 7 11.5-7.742 3.248-11.242.748-10.5-7.5a37.81 37.81 0 0 1 3.5-4Z" style="opacity:.999"/><path fill="#43baad" d="M1.5 50.5c6.658 11.957 15.99 21.29 28 28v4a115.152 115.152 0 0 1-12-7.5 303.627 303.627 0 0 0-15-14.5 34.17 34.17 0 0 1-1-10Z" style="opacity:.996"/><path fill="#31d098" d="M41.5 73.5c10.355-.901 12.689 2.932 7 11.5-9.035.406-11.368-3.428-7-11.5Z" style="opacity:.998"/><path fill="#6b81d4" d="M1.5 78.5c11.036 10.192 23.703 17.859 38 23a20.676 20.676 0 0 0 1 5c-13.57-4.922-25.903-11.922-37-21-1.44-2.088-2.106-4.421-2-7Z" style="opacity:.983"/><path fill="#599ac2" d="M115.5 79.5a31.705 31.705 0 0 1-2 6 7427.15 7427.15 0 0 1-15 8.5 652.43 652.43 0 0 1-23 7.5c-.284-1.915.049-3.581 1-5 14.408-2.71 27.408-8.377 39-17Z" style="opacity:.983"/><path fill="#46b5b0" d="M117.5 67.5v6h-1c-9.653 8.329-20.653 14.329-33 18-.797-.457-1.13-1.124-1-2 .432-1.21 1.099-2.21 2-3 12.697-3.511 23.697-9.844 33-19Z" style="opacity:.999"/><path fill="#50a5b8" d="M116.5 73.5c.175 2.12-.159 4.12-1 6-11.592 8.623-24.592 14.29-39 17 2.03-2.359 4.03-4.692 6-7-.13.876.203 1.543 1 2 12.347-3.671 23.347-9.671 33-18Z" style="opacity:.999"/><path fill="#39aa96" d="M56.5 83.5c2.583 1.485 3.916 3.818 4 7a9.864 9.864 0 0 1-6-1c1.247-1.823 1.914-3.823 2-6Z" style="opacity:.998"/><path fill="#569dbf" d="M-.5 64.5A119.298 119.298 0 0 0 9.5 79c.916.374 1.75.874 2.5 1.5-.15-2.006-.65-4.006-1.5-6 6.235 5.615 13.235 9.948 21 13a56.489 56.489 0 0 0 8 10c-15.765-5.538-29.098-14.538-40-27v-6Z" style="opacity:1"/><path fill="#638ecc" d="M-.5 70.5c10.902 12.462 24.235 21.462 40 27v4c-14.297-5.141-26.964-12.808-38-23l-2-5v-3Z" style="opacity:.998"/><path fill="#638ecc" d="M113.5 85.5c-.492 2.319-1.492 4.319-3 6-10.674 6.83-22.34 11.163-35 13v-3a652.43 652.43 0 0 0 23-7.5 7427.15 7427.15 0 0 0 15-8.5Z" style="opacity:1"/><path fill="#7671de" d="M3.5 85.5c11.097 9.078 23.43 16.078 37 21 .906 1.465 2.239 2.465 4 3l2-9a3.647 3.647 0 0 1 1.5 1c.497 2.646.664 5.313.5 8 19.235 2.966 37.902.299 56-8-.943 2.609-2.61 4.609-5 6-32.373 11.328-62.706 7.328-91-12-2.174-3.015-3.841-6.349-5-10Z" style="opacity:.998"/><path fill="#8263eb" d="M8.5 95.5c28.294 19.328 58.627 23.328 91 12-2.05 3.05-4.716 5.383-8 7-27.075 6.784-52.742 3.45-77-10-2.741-2.475-4.741-5.475-6-9Z" style="opacity:1"/><path fill="#6d79d2" d="M110.5 91.5c-.998 4.005-2.998 7.339-6 10-18.098 8.299-36.765 10.966-56 8h8v-7h3v7h8c.364-10.587 1.364-10.587 3 0 2.69-.689 4.356-2.356 5-5 12.66-1.837 24.326-6.17 35-13Z" style="opacity:.999"/><path fill="#924cfb" d="M25.5 114.5c18.108 6.548 36.441 8.548 55 6a72.77 72.77 0 0 1-16 5h-12c-9.86-1.51-18.86-5.177-27-11Z" style="opacity:.946"/><path fill="#8959f2" d="M14.5 104.5c24.258 13.45 49.925 16.784 77 10-3.178 2.758-6.845 4.758-11 6-18.559 2.548-36.892.548-55-6a39.308 39.308 0 0 1-11-10Z" style="opacity:.999"/></svg>
